X: 20341
Q: "Slow."
M: C	% Actually, there's no time signature.
L: 1/8
K: D
d3c B2(Bc/d/) | (AF)(E>D) D3E | (FE)(FA) B2(cd) | (ec)(B>A) A3A |\
d3c B2(Bc/d/) | (AF)(E>D) D3E | (FE)(FA) (Bd)(ef) | A2(e>d) d3 |]
d3c B2(Bc/d/) | (BA)(GF) G3A | B2(cd) e3d | c2(B>A) A3A |\
(dfa)=c B3f | (gf)(ed) {d}c3B | (AG)(FG) A2(de) | {de}f2(e>d) d3 |]


